public/svg/profiles/trakt.svg

<?xml version="1.0" encoding="UTF-8" standalone="no"?>
<svg width="50px" height="50px" viewBox="0 0 50 50" version="1.1" xmlns="http://www.w3.org/2000/svg" xmlns:xlink="http://www.w3.org/1999/xlink">
    <defs></defs>
    <g id="Page-1" stroke="none" stroke-width="1" fill="none" fill-rule="evenodd">
        <g id="Group">
            <g>
                <rect id="Rectangle-path" fill="#FFFFFF" x="0" y="0" width="50" height="50" rx="25"></rect>
                <path d="M25,50 C11.21875,50 0,38.78125 0,25 C0,11.21875 11.21875,0 25,0 C38.78125,0 50,11.21875 50,25 C50,38.78125 38.78125,50 25,50 L25,50 Z M25,2.521875 C12.603125,2.521875 2.521875,12.603125 2.521875,25 C2.521875,37.396875 12.603125,47.478125 25,47.478125 C37.396875,47.478125 47.478125,37.396875 47.478125,25 C47.478125,12.603125 37.396875,2.521875 25,2.521875 L25,2.521875 Z M10.1875,38.60625 C13.84375,42.60625 19.13125,45.09375 25,45.09375 C28,45.09375 30.834375,44.4375 33.390625,43.265625 L19.4375,29.35 L10.1875,38.60625 L10.1875,38.60625 Z M39.953125,38.465625 C43.1625,34.903125 45.13125,30.153125 45.13125,24.996875 C45.13125,16.903125 40.365625,9.965625 33.528125,6.746875 L20.84375,19.40625 L39.9375,38.46875 L39.953125,38.465625 Z M19.375,20.90625 L8.80625,31.4375 L7.390625,30.021875 L18.509375,18.90625 L31.490625,5.9375 C29.453125,5.25 27.28125,4.875 25,4.875 C13.88125,4.86875 4.86875,13.88125 4.86875,25 C4.86875,29.525 6.353125,33.703125 8.909375,37.084375 L19.440625,26.553125 L20.190625,27.240625 L35.284375,42.334375 C35.596875,42.1625 35.878125,41.990625 36.159375,41.78125 L19.4375,25.103125 L9.325,35.21875 L7.909375,33.80625 L19.440625,22.275 L20.190625,22.9625 L37.815625,40.5375 C38.096875,40.33125 38.346875,40.090625 38.596875,39.88125 L19.5625,20.890625 L19.3875,20.921875 L19.375,20.90625 Z M25.725,23.046875 L24.3125,21.640625 L34.2875,11.659375 L35.703125,13.096875 L25.725,23.065625 L25.725,23.046875 Z M35.1875,9.34375 L23.6875,20.84375 L22.271875,19.43125 L33.771875,7.93125 L35.1875,9.353125 L35.1875,9.34375 Z" id="Shape" fill="#EC222B"></path>
            </g>
        </g>
    </g>
</svg>

<svg width="50" height="50" viewBox="0 0 50 50" xmlns="http://www.w3.org/2000/svg"><g fill="none" fill-rule="evenodd"><rect fill="#FFF" width="50" height="50" rx="25"/><path d="M25 50C11.22 50 0 38.78 0 25S11.22 0 25 0s25 11.22 25 25-11.22 25-25 25zm0-47.478C12.603 2.522 2.522 12.602 2.522 25c0 12.397 10.08 22.478 22.478 22.478 12.397 0 22.478-10.08 22.478-22.478 0-12.397-10.08-22.478-22.478-22.478zM10.187 38.606c3.657 4 8.944 6.488 14.813 6.488 3 0 5.834-.657 8.39-1.828L19.438 29.35l-9.25 9.256zm29.766-.14c3.21-3.563 5.178-8.313 5.178-13.47 0-8.093-4.764-15.03-11.602-18.25l-12.684 12.66L39.937 38.47l.016-.004zm-20.578-17.56L8.805 31.438l-1.414-1.416 11.12-11.116L31.49 5.938C29.454 5.25 27.28 4.875 25 4.875 13.88 4.87 4.87 13.88 4.87 25c0 4.525 1.483 8.703 4.04 12.084l10.53-10.53.75.687 15.094 15.094c.313-.172.594-.343.875-.553L19.437 25.104 9.325 35.22 7.91 33.805l11.53-11.53.75.686 17.626 17.576c.28-.207.53-.447.78-.657L19.564 20.89l-.175.032-.013-.016zm6.35 2.14l-1.413-1.405 9.976-9.98 1.415 1.437-9.978 9.97v-.02zm9.462-13.702l-11.5 11.5-1.415-1.413 11.5-11.5 1.416 1.423v-.01z" fill="#EC222B"/></g></svg>
